X: 1
T: McFadden's
M: 4/4
L: 1/8
R: reel
K: Edor
Eeed ~B3c|d~B3 dBAF|Eeed BABc|dfec dBAF|
E~B3 d~B3|E~B3 BAFB|AFDF ABde|1 fgfe dBAF:|2 fgfe defg||
a2 ag fdde|faec dBAe|faaf bfaf|~g3f efge|
a^ga=g fdde|faec dBAe|faaf bfaf|1 gafg efge:|2 gafe dBAF||
